X: 6871
T: Charlotte's Web
R: waltz
M: 3/4
K: Dminor
|:(afedBA)|(ABdefa)|(g3 f) fe|e6|
(ba) (ag) (gf)|(fe) (ef) (ge)|(fedBAF)|D6:|
|:(A,D) (EF) (ED)|(B,D) (EF) (ED)|(CD) (EG) (FE)|(LFED) (LEDB,)|
(A,D) (EF) (ED)|(B,D) (EF) (ED)|1 (CD) (EG) (FE)|(FE D4):|2 (CD) (EG) (EG)|A (d d4)||

